X:1
T:White Christmas
T:White Christmas
T:Irving Berlin
T:Pianocursos.com
C:Irving Berlin
Z:Pianocursos.com
%%score { 1 | 2 }
L:1/8
Q:1/4=114
M:4/4
K:C
V:1 treble nm="Piano" snm="Pno."
V:2 bass 
V:1
"^Moderato"!p! !1!E8 | F2 E2 !2!^D2 E2 | F8 | !3!^F2 !1!G6 | z2!mf! !2!A2 B2 c2 | d2 c2 B2 A2 | %6
!>(! G8!>)! | z4!p! !1!C2 D2 | E4 E4 |2 E2 A4 G2 || C4 C4 | C2 !4!G4 F2 | E8 | %13
 !3!F2 E2 !1!D2 !2!^C2 | !1!D8- | D8 :|2 !1!E2"_cresc." !3!A4 G2 || c8 | %18
 !fermata![Fc]4[Q:1/4=52]"^Lento"!p! !1!C2 D2 | E4 E4 |!>(! A2 G4 B,2!>)! | C8 |] %22
V:2
 !4!C,4 G,4 | C,4 !5!B,,2 C,2 | D,4 A,4 | !4!^D,2 !3!E,4 G,2 | F,8- | F,8 | E,4 !1!F,2 !2!^F,2 | %7
 !1!G,8 | C,4 !1!C2 B,2 |2 !3!_B,8 || !1!A,8 | !2!_A,8 | !1!G,4 !5!C,4 | !4![^C,A,]6 z2 | %14
 z2 !4!D,2 E,2 F,2 | G,4 !5!B,,4 :|2 !3!_B,8 || !1!A,4 G,2 F,2 | !fermata!!2!_A,8 | !1!G,8 | %20
 F,2 E,4 G,2 | z4 [C,E,G,]4 |] %22

